X: 14099
T: The TWINS' REEL
C: Bob McQuillen 14 July'08
B: Bob's Note Book 14 #99
%R: reel
%D:2008
Z: 2020 John Chambers <jc:trillian.mit.edu>
M: C
L: 1/8
K: D
dB \
| Adfd BGBd | Adfa fdAF | DFAF GBAG | FAdf e2dB |
| Adfd BGBd | Aceg fded | BGBd AFAd | fedc d2 :|
|: de \
| fafd edBA | dfed BdAF | DFAF Adfa | gfed cAde |
| fafd edBA | dfed BdAF | DFAd BAdf | afef d2 :|
%%begintext align
%% I know they're not identical, but Sophie
%% Orzechowski from Newport and Molly
%% Trainor from Warner are close enough to
%% earn this tune. Since they are both fiddlers,
%% they can try this out and see if it turns their
%% crank. I hope it does! Much love to you both
%% from Bob
%%endtext

%%sep 1 1 500

%%sep 1 1 500

